X:901
T:Anglais efter Per Nilsson Dahlberg
T:(SvL Skåne nr. 184)
S:efter Per Nilsson Dahlberg
S:Svenska Låtar Skåne nr 184
R:Anglais
B:Svenska Låtar Skåne
Z:Patrik Månsson, 2009-01-03
O:Nymö, Skåne
D:Inspelad som låt nr. 2 på skivan "Skåne runt på 75 minuter"
M:2/4
L:1/16
K:Bb
(G4 G)ABc | (d4 d)=e^fg | b4 (ag)(^fg) | a2B2 g4 :|
|: f2fe (df)ba | g2gf (ed)cB | AFAc (ed)cA | B2d2 B2 z2 :|

(:musicend:)
Låten är den enda i Dahlbergs repertoar som har ett inslag av molltonart. (SvL)

(:music:)
